X:1
T:Title
%%score ( 1 2 ) ( 3 4 ) 5 { ( 6 8 ) | ( 7 9 ) }
L:1/8
Q:1/4=87
M:4/4
K:Eb
V:1 treble nm="Church Organ"
V:2 treble 
V:3 treble nm="Church Organ"
V:4 treble 
V:5 treble nm="Flute"
V:6 bass nm="Church Organ"
V:8 bass 
V:7 bass 
V:9 bass 
V:1
 [FA]2 F2 [EG]2 [B,E]2 | C4[K:bass] D4 | [B,E]6 z2 | z8 | z8 | z8 | z8 | z8 | z8 | z8 | z8 | %11
 z4 z2[K:treble] EF | G2 G2 [EA]2 [FA]2 | G3 F E2 EG | [DB]2 [EB]2 [Ec]2 c2 | B3 A [EG]2 GF | %16
 E2 E2 A2 A2 | F2 F2 [GB]3 G | [FA]2 F2 [EG]2[K:bass] [B,E]2 | C4 D4 | z4 z2[K:treble] E2 | %21
 G2 G2 A2 A2 | G3 F E2 EG | B2 B2 c2 c2 | G3 A G2 GF | E2 E2 A2 A2 | F2 F2 [GB]3 G | A2 F2 G2 E2 | %28
 C4 D4 | E8 |] %30
V:2
 x8 | z2[K:bass] A,2 F,2 B,2 | x8 | x8 | x8 | x8 | x8 | x8 | x8 | x8 | x8 | x6[K:treble] x2 | %12
 E4 z4 | E4 z4 | x8 | D4 z2 B,2 | C4 C4 | x8 | x6[K:bass] x2 | z2 A,2 F,2 B,2 | %20
 [B,E]6[K:treble] z F | x8 | x8 | x8 | x8 | x8 | x8 | x8 | x8 | x8 |] %30
V:3
 z8 | z8 | z4 z2 ef | [eg]2 [eg]2 [ea]2 [fa]2 | [eg]3 f e2 eg | [db]2 [eb]2 [ec']2 c'2 | %6
 b3 a [eg]2 gf | e2 e2 a2 a2 | f2 f2 [db]2 [eg]2 | [fa]2 f2 [eg]2 [Be]2 | c4 d4 | [Be]6 z2 | z8 | %13
 z8 | z8 | z8 | z8 | z8 | z8 | z8 | z4 z2 ef | [gb]2 [gb]2 [ac']2 [ac']2 | [gb]3 [fa] [eg]2 eg | %23
 [gb]2 [gb]2 [ac']2 [ac']2 | [gb]3 [ac'] [gb]2 gf | [ec']2 [ec']2 [ac']2 [ac']2 | %26
 [fd']2 ba [gb]3 [gb] | [ac']2 [fc']2 [g=b]2 [ec']2 | [ca]4 [da]4 | [Beg]8 |] %30
V:4
 x8 | x8 | x8 | x8 | x8 | x8 | d4 z2 B2 | c4 c4 | d4 z4 | x8 | z2 A2 F2 B2 | x8 | x8 | x8 | x8 | %15
 x8 | x8 | x8 | x8 | x8 | x8 | x8 | x8 | x8 | x8 | x8 | z2 f2 z4 | x8 | x8 | x8 |] %30
V:5
 z8 | z8 | z8 | z8 | z8 | z8 | z8 | z8 | z8 | z8 | z8 | z8 | z8 | z8 | z8 | z8 | z8 | z8 | z8 | %19
 z8 | z8 | BeBe cece | BdBA G2 GB | eBeB ecec | eBed eB =B2 | cGcG ecec | dBdB B3 e | fcfe dGcG | %28
 cAFA dAFA | GBGB G4 |] %30
V:6
 C2 B,2 B,2 G,2 | E,2 F,2 F,4 | G,6 G,A, | B,4 C2 B,2 | B,2 z A, G,2 E,2 | F,2 B,2 A,2 z G, | %6
 F,2 B,2 B,2 z D, | z2 A,4 z2 | B,4 z4 | C2 B,2 B,2 G,2 | E,2 F,2 F,4 | G,6 G,A, | B,4 C2 B,2 | %13
 B,3 A, G,2 E,2 | F,2 B,2 A,2 B,,G, | F,2 B,2 B,2 z D, | G,4 A,4 | B,4 z4 | C2 B,2 B,2 G,2 | %19
 E,2 F,2 F,4 | G,6 G,A, | E,2 E,2 A,,2 A,,2 | B,,3 B,, E,2 z2 | G,2 G,2 A,2 A,2 | G,3 F, E,2 D,2 | %25
 C,2 C,2 F,,2 F,2 | B,2 A,2 G,3 C, | F,,2 A,,C, =B,,2 C,2 | A,,4 B,,4 | G,8 |] %30
V:7
 F,2 D,2 E,4 | A,,4 B,,4 | E,,6 .E,2 | E,4 C,2 D,2 | E,2 z2 E,2 C,2 | B,,2 G,,2 A,,2 z2 | %6
 B,,4 E,2 z2 | z2 F,4 z2 | z4 G,2 G,2 | F,2 D,2 E,4 | A,,4 B,,4 | E,,6 .E,2 | E,4 C,2 D,2 | %13
 E,4 E,2 C,2 | B,,2 G,,2 A,,2 z2 | B,,4 E,2 z2 | C,4 F,4 | z4 G,2 z G, | F,2 D,2 E,4 | A,,4 B,,4 | %20
 E,,6 E,2 | z8 | z4 E,,2 z2 | G,,2 G,,2 A,,2 A,,2 | G,,3 F,, E,,2 z2 | z8 | B,,2 A,,2 .G,,4 | z8 | %28
 z8 | E,,8 |] %30
V:8
 x8 | x8 | x8 | x8 | x8 | z4 z2 B,,2 | z4 z2 E,2 | G,4 z4 | z2 z A, B,2 B,2 | x8 | x8 | x8 | x8 | %13
 x8 | x8 | z4 z2 E,2 | x8 | z2 z A, B,2 z B, | x8 | x8 | x8 | x8 | x8 | x8 | x8 | x8 | x8 | x8 | %28
 x8 | x8 |] %30
V:9
 x8 | x8 | x8 | x8 | x8 | x8 | x8 | C,4 z4 | x8 | x8 | x8 | x8 | x8 | x8 | x8 | x8 | x8 | x8 | x8 | %19
 x8 | x8 | x8 | x8 | x8 | x8 | x8 | x8 | x8 | x8 | x8 |] %30

